shader randomsquare(
  vector p = P,
  int Number = 100,
  float Radius = 0.03,

  output float Fac = 0
){
    for(int n=0; n<Number; n++){ 
        float x = noise("cell",vector(n,n,n),2);
        float y = noise("cell",vector(n,n,n),3);
        float d = distance(p,vector(x,y,0));
        if(d < Radius){
            Fac = 1;
            break;
        }
    }
}
