shader rotate(
  vector V = 0,
  vector From = 0,
  vector To = point(0,0,1),
  float Angle = 0, // in degrees

  output vector Out = 0
){
  float rads=radians(Angle);
  Out = rotate(V, rads, From, To);
}
